X:100
T: Ave Maria (2-2) S. 15
N: P0875
O: Lothringen
S: PINCK, Louis: Verklingende Weisen, Bd 2, Metz 1928]
R: geistliche, religise Lieder]
M: 3/4
L: 1/8
K: D
z2=F2E2D2 | A2A4G2 | G4A2 | D2D2E2 | =F2G2F2E2 | D4
=C2 | =F2A2G2 | A3G=F2 | G3=FE2 | D4
E2 | D2D2D2 | A4G4 | =c4d4 | =c2B2A2 |
G2 | A2B2=c2 | d2d2A2 | G2A2=F2 | E2E2
D2 | =F2A2G2 | A3G=F2 | G3=FE2 | D4
D2 | =F2A2G2 | A3G=F2 | G3=FE2 | D4z2

@@@ Tune index: 7650
